X: 2
T: An Cupan Tae
M: 6/8
L: 1/8
R: jig
K: Edor
|: D |
EFE GFE | dcA BAd | EFE GFE | dcA B2 G |
~E3 GG/F/E | dcA B2 d | eBe B^AB | AFD E2 :|
|: g |
eBB eBB | e/f/ge fed | eBB eBg | afd e2 g |
eBB eBB | ege fed | eBe B^AB | AFD E2 :|
